images/icons/viber.svg

<svg width="25" height="27" viewBox="0 0 25 27" fill="none" xmlns="http://www.w3.org/2000/svg">
<path d="M11.842 0.220879C9.72818 0.246428 5.18359 0.594227 2.64172 2.92909C0.750948 4.8049 0.0907851 7.57823 0.0134094 11.0076C-0.0507961 14.4246 -0.128172 20.8416 6.04954 22.5888V25.25C6.04954 25.25 6.01085 26.3149 6.71382 26.5333C7.57977 26.8077 8.07283 25.9885 8.89598 25.1083L10.4311 23.3701C14.658 23.722 17.8954 22.911 18.2683 22.7907C19.126 22.5163 23.9571 21.8981 24.7465 15.4803C25.5565 8.85239 24.3522 4.67633 22.1783 2.78734H22.1651C21.5091 2.1824 18.8725 0.25879 12.9821 0.237362C12.9821 0.237362 12.545 0.207692 11.842 0.220054V0.220879ZM11.9145 2.08432C12.5145 2.0802 12.8792 2.10575 12.8792 2.10575C17.865 2.11894 20.2447 3.62139 20.8061 4.12743C22.6368 5.6983 23.5801 9.4631 22.8895 14.9966C22.2334 20.3619 18.3152 20.7014 17.59 20.933C17.2814 21.0319 14.43 21.7358 10.8378 21.5042C10.8378 21.5042 8.16256 24.7366 7.32624 25.569C7.19371 25.7149 7.03896 25.7577 6.94019 25.7363C6.7986 25.7017 6.7558 25.5261 6.76403 25.2855L6.78955 20.8688C1.55022 19.4182 1.8589 13.9449 1.91488 11.0859C1.97908 8.22684 2.51495 5.88786 4.11021 4.30381C6.2578 2.35959 10.1167 2.09751 11.9128 2.08432H11.9145ZM12.3096 4.94254C12.2664 4.9421 12.2237 4.95022 12.1837 4.96641C12.1437 4.98261 12.1073 5.00657 12.0767 5.03691C12.046 5.06724 12.0216 5.10336 12.0049 5.14318C11.9882 5.183 11.9796 5.22573 11.9795 5.26891C11.9795 5.45352 12.1293 5.5994 12.3096 5.5994C13.1257 5.58386 13.9369 5.73025 14.6962 6.03013C15.4556 6.33001 16.1482 6.77745 16.734 7.34663C17.93 8.50953 18.5128 10.0722 18.535 12.1153C18.535 12.2958 18.6807 12.4458 18.8651 12.4458V12.4326C18.952 12.4328 19.0355 12.3986 19.0973 12.3375C19.1591 12.2763 19.1943 12.1932 19.1952 12.1062C19.2352 11.1445 19.0794 10.1847 18.7374 9.28521C18.3954 8.38568 17.8742 7.56517 17.2056 6.87356C15.9026 5.59857 14.2514 4.94171 12.3096 4.94171V4.94254ZM7.97076 5.6983C7.73777 5.66421 7.50014 5.71104 7.29743 5.83099H7.28014C6.80952 6.1072 6.38556 6.4563 6.02402 6.86532C5.72357 7.21312 5.56059 7.56504 5.51779 7.90377C5.49227 8.10569 5.50956 8.30761 5.56965 8.50047L5.59105 8.51366C5.92936 9.50925 6.37139 10.4669 6.91138 11.3686C7.60695 12.6353 8.46297 13.8068 9.45819 14.854L9.48782 14.8968L9.53474 14.9314L9.56437 14.9661L9.59895 14.9957C10.6486 15.9951 11.8215 16.8562 13.0891 17.5581C14.5378 18.3476 15.4169 18.721 15.9446 18.8759V18.8842C16.0993 18.9311 16.2401 18.9526 16.3817 18.9526C16.8313 18.9196 17.257 18.7368 17.5909 18.4333C17.9975 18.0713 18.3423 17.645 18.6116 17.1715V17.1633C18.8643 16.6869 18.7787 16.2361 18.414 15.9312C17.6837 15.292 16.894 14.7243 16.0557 14.2359C15.4943 13.9309 14.9239 14.1155 14.6926 14.4246L14.1995 15.0468C13.9468 15.3559 13.4875 15.313 13.4875 15.313L13.4743 15.3213C10.0492 14.4452 9.13552 10.973 9.13552 10.973C9.13552 10.973 9.09271 10.5007 9.40962 10.2601L10.027 9.76227C10.3225 9.52161 10.5283 8.95129 10.2114 8.38838C9.72686 7.54786 9.16112 6.75698 8.52227 6.02714C8.38261 5.85508 8.18667 5.73801 7.96912 5.69665L7.97076 5.6983ZM12.8792 6.67741C12.4421 6.67741 12.4421 7.33839 12.8833 7.33839C13.4268 7.34722 13.9633 7.4632 14.462 7.67971C14.9607 7.89621 15.4119 8.209 15.7898 8.60019C16.1346 8.98097 16.3995 9.42715 16.5689 9.9123C16.7383 10.3975 16.8087 10.9117 16.776 11.4246C16.7775 11.5114 16.8129 11.5942 16.8745 11.6552C16.9362 11.7162 17.0193 11.7506 17.106 11.751L17.1192 11.7683C17.2066 11.7676 17.2901 11.7326 17.3519 11.6708C17.4137 11.6089 17.4486 11.5253 17.4493 11.4378C17.4789 10.1282 17.0723 9.02958 16.2747 8.14937C15.4729 7.26916 14.3543 6.77549 12.9261 6.67741H12.8792ZM13.42 8.45432C12.9697 8.44113 12.9524 9.1153 13.3986 9.12848C14.4835 9.18453 15.0103 9.73342 15.0795 10.8625C15.081 10.9482 15.1159 11.03 15.1768 11.0902C15.2378 11.1504 15.3198 11.1844 15.4054 11.1848H15.4186C15.4626 11.1829 15.5058 11.1722 15.5457 11.1535C15.5855 11.1347 15.6212 11.1081 15.6508 11.0754C15.6803 11.0426 15.7029 11.0043 15.7175 10.9626C15.732 10.921 15.7382 10.8769 15.7355 10.8329C15.6581 9.3609 14.8564 8.53179 13.4332 8.45514H13.42V8.45432Z" fill="#BDBDBD"/>
</svg>

<svg width="25" height="27" fill="none" xmlns="http://www.w3.org/2000/svg"><path d="M11.842.22c-2.114.026-6.658.374-9.2 2.71C.75 4.804.09 7.577.013 11.007c-.064 3.417-.141 9.834 6.037 11.58v2.662s-.04 1.065.664 1.283c.866.275 1.359-.545 2.182-1.425l1.535-1.738c4.227.352 7.464-.459 7.837-.58.858-.274 5.69-.892 6.479-7.31.81-6.628-.395-10.804-2.569-12.693h-.013C21.51 2.182 18.872.26 12.982.237c0 0-.437-.03-1.14-.017zm.072 1.864c.6-.004.965.022.965.022 4.986.013 7.366 1.515 7.927 2.021 1.83 1.571 2.774 5.336 2.084 10.87-.657 5.365-4.575 5.704-5.3 5.936-.309.099-3.16.803-6.752.571 0 0-2.675 3.233-3.512 4.065-.132.146-.287.189-.386.167-.141-.034-.184-.21-.176-.45l.026-4.417c-5.24-1.45-4.931-6.924-4.875-9.783.064-2.86.6-5.198 2.195-6.782 2.148-1.944 6.007-2.206 7.803-2.22h.002zm.396 2.859a.326.326 0 00-.33.326c0 .185.15.33.33.33a6.177 6.177 0 014.424 1.748c1.196 1.163 1.779 2.725 1.801 4.768 0 .18.146.33.33.33v-.012a.33.33 0 00.33-.327 7.107 7.107 0 00-1.99-5.232c-1.302-1.275-2.954-1.932-4.895-1.932zm-4.34.755a1.03 1.03 0 00-.673.133H7.28c-.47.276-.894.625-1.256 1.034-.3.348-.463.7-.506 1.039-.026.202-.008.404.052.596l.021.014c.338.995.78 1.953 1.32 2.855a16.792 16.792 0 002.547 3.485l.03.043.047.034.03.035.034.03c1.05 1 2.223 1.86 3.49 2.562 1.449.79 2.328 1.163 2.856 1.318v.008c.154.047.295.069.437.069.45-.033.875-.216 1.209-.52a4.997 4.997 0 001.02-1.261v-.009c.253-.476.168-.927-.197-1.232a15.177 15.177 0 00-2.358-1.695c-.562-.305-1.132-.12-1.363.189l-.493.622c-.253.309-.712.266-.712.266l-.014.008c-3.425-.876-4.338-4.348-4.338-4.348s-.043-.472.274-.713l.617-.498c.296-.24.501-.81.184-1.374a14.83 14.83 0 00-1.689-2.36.938.938 0 00-.553-.331l.002.001zm4.91.98c-.438 0-.438.66.003.66A4.133 4.133 0 0115.79 8.6a3.841 3.841 0 01.986 2.825.333.333 0 00.33.326l.013.017a.333.333 0 00.33-.33c.03-1.31-.377-2.408-1.174-3.289-.802-.88-1.92-1.374-3.349-1.472h-.047zm.54 1.776c-.45-.013-.468.661-.021.674 1.085.057 1.611.605 1.68 1.735a.328.328 0 00.326.322h.014a.334.334 0 00.316-.352c-.077-1.472-.879-2.301-2.302-2.378h-.013z" fill="#BDBDBD"/></svg>
